with_tempo 200
50.times do
play 42
sleep 0.5
play 45
sleep 0.85
2.times do
   play 50
   sleep 0.9
   play 50 
   sleep 0.60
end
with_tempo 100
1.times do
  play_pattern [20,40,60,80,100,85,64,40,3]
end 
play 48
sleep 1
end
